X:1
T:Zwölf vierstimmige Gesänge
T:Morgenlust
T:Conradin Kreutzer
T:J. C. Peppert
T:Morgenlust
T:Op. 14,1
T:CPDL - Creative Commons Attribution Non Commercial 3.0
T:CPDL - Creative Commons Attribution Non Commercial 3.0
C:Conradin Kreutzer
Z:J. C. Peppert
Z:CPDL - Creative Commons Attribution Non Commercial 3.0
%%score [ ( 1 2 ) ( 3 4 ) ]
L:1/8
Q:1/4=80
M:2/4
K:F
V:1 treble-8 nm="Tenor"
V:2 treble-8 
V:3 bass nm="Bass"
V:4 bass 
V:1
"^Allegretto"!f! cA cA | fd c2 | ff e f/e/ | !>!d2 c z |!p! cA cA | fd c2 | .c.c!<(! .d.d!<)! | %7
w: 1.~Le- bens- o- dem,|Him- mels- tau|strömt mir durch die *|Glie- der,|Mor- gen- wol- ken,|rot und grau,|zit- tern auf und|
!>(! d2!>)! e z | ge ge | fc c2 | !>!d>c c/B/ B/A/ | A2 G z | cA cA | fd c2 |!<(! dd gf!<)! | %15
w: nie- der.|Wie- sen- glöck- lein|ist er- wacht,|plau- dert mit * den *|Wel- len|von den Träu- men|in der Nacht,|die sie im- mer|
!>(! e2!>)! f !fermata!z ||!f! f>d f z/ d/ | d>B d z |!<(! _ee ee!<)! |!>(! _e2!>)! d z | f>d fd | %21
w: quä- len.|2.~Mor- gen- wind, der|jun- ge Fant,|ist schon auf den|Fü- ßen,|um dem Rös- chen|
 d>B d2 |!p!!<(! d>d ^f>=e!<)! |!>(! e2!>)! d z |!f! d _e/d/ d e/d/ | d _e/d/ d2 | %26
w: da die Hand,|dort die Brust zu|küs- sen.|Eich' und * Fich- te *|schüt- teln * sich|
 ^f!<(!d =e!<)!f | g2 G2 | gg !>!g>f | !>!e>d c2 |!p! .A.A .f.=B | d2 c z || c>!<(!A cA!<)! | %33
w: ih- re grü- ne|Flech- te,|und das so herz-|in- nig- lich,|dass man's kaum sich|däch- te.|3.~Ach! und drin- nen|
 fd c2 |!<(! d[Q:1/4=80]"^calando"d d3/2!<)!{/e}d/ |!>(! !fermata!^c2!>)! !fermata!e2 | %36
w: lie- gen sie|noch in Schlum- mers|Ket- ten,|
!mf! f^f g>=f | ee f2 |!p!!<(! d>d e!<)!f |!>(! c2!>)! c z | ge ge | fc c2 | %42
w: kei- ner sinkt noch|auf sein Knie,|um hin- auf zu|be- ten.|Ach! und drin- nen|lie- gen sie|
[Q:1/4=80]"^calando"!<(! dd{/e} d{/e}d!<)! |!>(! !fermata!^c2!>)! !fermata!e2 | %44
w: noch in Schlum- mers|Ket- ten,|
!p!!<(! f^f g>!<)!!>(!=f!>)! | ee f2 |!<(! d>d f>!<)!f |!ff! f3 c |!>(! c4!>)! | !fermata!c2 z2 |] %50
w: kei- ner sinkt noch|auf sein Knie,|um hin- auf, hin-|auf zu|be-|ten.|
V:2
 AF AF | dB A2 | cd cc | =B2 c x | AF AF | dB A2 | .c.c .c.c | =B2 c x | ec ec | cA A2 | %10
 .F.F .E.F | F2 E x | AF AF | dB A2 | Bd dd | c2 c x || d>B d x/ B/ | B>F B x | BB cc | c2 B x | %20
 d>B dB | B>F B2 | A>A d>^c | ^c2 d x | =cc BB | cc B2 | cc cc | B2 d2 | dd d>d | c>=B c2 | %30
 .A.A .A.G | =B2 c x || A>F AF | dB A2 | F^F G^G | A2 ^c2 | dd d>d | cc c2 | ^G>G GG | A=G A x | %40
 ec ec | cA A2 | F^F G^G | A2 ^c2 | dd d>d | cc c2 | B>B d>d | c3 A | G4 | A2 x2 |] %50
V:3
!f! F,F, F,F, | F,F, F,2 | A,G, G,G, | !>!F,2 E, z |!p! F,F, F,F, | F,F, F,2 | %6
 .G,.G,!<(! .A,.A,!<)! |!>(! G,2!>)! G, z | _B,G, B,G, | F,F, F,2 | .F,.F, .C,.C, | C,2 C, z | %12
 F,F, F,F, | F,F, F,2 |!<(! F,B, B,B,!<)! |!>(! G,2!>)! A, !fermata!z ||!f! B,>F, B, z/ F,/ | %17
 F,>D, F, z |!<(! G,G, A,A,!<)! |!>(! A,2!>)! B, z | F,>F, B,F, | F,>D, F,2 | %22
!p!!<(! ^F,>F, A,>G,!<)! |!>(! G,2!>)! ^F, z |!f! A,A, G,G, | A,A, G,2 | A,!<(!A, A,!<)!A, | %27
 G,2 B,2 | G,G, !>!G,>G, | !>!G,>G, G,2 |!p! .A,.A, .A,.F, | F,2 E, z || F,>!<(!F, F,F,!<)! | %33
 F,F, F,2 |!<(! F,^F, G,!<)!^G, |!>(! !fermata!A,2!>)! !fermata!A,2 |!mf! A,A, G,>G, | G,G, F,2 | %38
!p!!<(! F,>F, F,!<)!F, |!>(! F,E,!>)! F, z | B,G, B,G, | F,F, F,2 |!<(! F,^F, G,^G,!<)! | %43
!>(! !fermata!A,2!>)! !fermata!A,2 |!p!!<(! A,A, G,>!<)!!>(!G,!>)! | G,G, F,2 | %46
!<(! F,>F, ^G,>!<)!G, |!ff! A,3 F, |!>(! (F,2 E,2)!>)! | !fermata!F,2 z2 |] %50
V:4
 F,,F, F,,F, | B,,D, F,2 | A,,=B,, C,C, | G,,2 C, x | F,,F, F,,F, | B,,D, F,2 | .E,.E, .F,.F, | %7
 G,2 C, x | C,B, C,B, | A,F, C,2 | .B,,.A,, .G,,.F,, | C,2 C, x | F,,F, F,,F, | B,,D, F,2 | %14
 B,,B,, B,,B,, | C,2 F,, x || B,,>B,, B,, x/ B,,/ | B,,>B,, B,, x | B,,B,, B,,B,, | B,,2 B,, x | %20
 B,,>B,, B,,B,, | B,,>B,, B,,2 | A,,>A,, A,,>A,, | A,,2 D, x | ^F,F, G,G, | ^F,F, G,2 | D,D, D,D, | %27
 G,,2 G,2 | B,,B,, B,,>=B,, | C,>F, E,2 | .F,.E, .D,.G,, | G,,2 C, x || F,,F, F,,F, | B,,D, F,2 | %34
 B,,B,, B,,B,, | A,,2 A,2 | D,C, B,,>B,, | B,, C,/B,,/ A,,2 | =B,,>B,, B,,B,, | C,2 F,, x | %40
 C,B, C,B, | A,F, C,2 | B,,B,, B,,B,, | A,,2 A,2 | D,C, B,,>B,, | B,, C,/B,,/ A,,2 | %46
 B,,>B,, =B,,>B,, | C,3 C, | C,4 | F,,2 x2 |] %50

